X: 2
T: The Tailor's Thimble
R: reel
M: 4/4
L: 1/8
K: Ador
cAAG A3B | cA3 dBGB | cAAG ABcd |1 efge dBGB :|2 efge dega ||
b2bg a2ga | bage dega | bg3 abgd | efge dega |
b2bg a2ga | bage dega | bg2b aged | efge dBGB ||


Tune 704	Setting 704

